static/img/icons/icon-channels-dark.svg

<svg width="24" height="24" viewBox="0 0 24 24" fill="none" xmlns="http://www.w3.org/2000/svg">
<path d="M20 7H4C2.89543 7 2 7.89543 2 9V20C2 21.1046 2.89543 22 4 22H20C21.1046 22 22 21.1046 22 20V9C22 7.89543 21.1046 7 20 7Z" stroke="#141414" stroke-width="1.5" stroke-linecap="round" stroke-linejoin="round"/>
<path d="M17 2L12 7L7 2" stroke="#141414" stroke-width="1.5" stroke-linecap="round" stroke-linejoin="round"/>
</svg>

<svg xmlns="http://www.w3.org/2000/svg" width="24" height="24" fill="none" viewBox="0 0 24 24"><path stroke="#141414" stroke-linecap="round" stroke-linejoin="round" stroke-width="1.5" d="M20 7H4a2 2 0 0 0-2 2v11c0 1.1.9 2 2 2h16a2 2 0 0 0 2-2V9a2 2 0 0 0-2-2m-3-5-5 5-5-5"/></svg>
